!!!SOCIAL_FUNCTION:	songs connected with ceremonies
!!!PDT:	1929
!!!OTL: No_102_Each_Singer_Wears_a_White_Feather.krn
!!!REG: Southwest
!!!LANG: Non-Tone
!!!LING_GROUP: Uto-Aztecan
**kern
*staff1
=1-
*clefF4
*k[b-e-a-d-]
*M3/4
2c\
8c\L
8B-\J
=2
2c\
8B-\L
8A-\J
=3
4B-\
4A-\
8F\L
8E-\J
=4
4A-\
4.A-\
16F\LL
16E-\JJ
=5||
*M2/4
4r
4A-\
=6||
*M3/4
2B-\
8A-\L
8F\J
=7||
*M2/4
4A-\
8F\L
8E-\J
=8
4E-\
8F\L
8E-\J
=9||
*M3/4
2E-\
8C/L
16BB-/Jk
16r
=10||
*M2/4
2E-\
=11
8C/L
8BB-/J
8BB-/L
8E-/J
=12
4E-\
8F\L
8E-\J
=13
4E-\
8C/L
8BB-/J
=14||
*M7/8
4E-\
4E-\
8C/L
8BB-/
8F/J
=15||
*M2/4
4F\
8E-/L
8C/J
=16
2F\
=17||
*M3/4
2r
8r
8B-\
=18||
*M2/4
4B-\
8G\L
8F\J
=19||
*M3/4
2F\
8G\L
8E-\J
=20||
*M7/8
4F\
4E-\
8C/L
8BB-/
8F/J
=21||
*M2/4
4F\
8E-/L
8C/J
=22
4F\
8G\L
8F\J
=23
2F\
=24
2F\
==
*-
